src/assets/filled/Shapes1.svg

<svg width="24" height="24" viewBox="0 0 24 24"  xmlns="http://www.w3.org/2000/svg">
<path d="M11.75 7H11H7C4.24 7 2 9.24 2 12V17C2 19.76 4.24 22 7 22H12C14.76 22 17 19.76 17 17V13V12.25C17 9.35 14.65 7 11.75 7Z" />
<path d="M21.8799 6.32984C22.4045 8.88943 21.1621 11.2118 19.159 12.3055C18.8514 12.4735 18.4999 12.2338 18.4999 11.8834V11.7498C18.4999 8.30984 15.6899 5.49984 12.2499 5.49984H12.1164C11.7659 5.49984 11.5263 5.1483 11.6942 4.8407C12.7879 2.83762 15.1103 1.59526 17.6699 2.11984C19.7599 2.54984 21.4499 4.23984 21.8799 6.32984Z" />
</svg>

<?xml version="1.0" encoding="UTF-8"?>
<svg width="24" height="24" viewBox="0 0 24 24" xmlns="http://www.w3.org/2000/svg">
 <path d="m11.75 7h-4.75c-2.76 0-5 2.24-5 5v5c0 2.76 2.24 5 5 5h5c2.76 0 5-2.24 5-5v-4.75c0-2.9-2.35-5.25-5.25-5.25z"/>
 <path d="m21.88 6.3298c0.5246 2.5596-0.7178 4.882-2.7209 5.9757-0.3076 0.168-0.6591-0.0717-0.6591-0.4221v-0.1336c0-3.44-2.81-6.25-6.25-6.25h-0.1335c-0.3505 0-0.5901-0.35154-0.4222-0.65914 1.0937-2.0031 3.4161-3.2454 5.9757-2.7209 2.09 0.43 3.78 2.12 4.21 4.21z"/>
</svg>
